X: 39775
T: Thanks Jerry
R: jig
M: 6/8
K: Amajor
|:E|"A"EAA ABc|"E7"B2c Bcf|"A"ecB "F#m"cBA|"Bm"BAF "E7"AFE|
"A"EAA ABc|"E7"B2c Bce|"D"afe "E7"fec|"E7"ecB "A"A2:|
|:e|"F#m"faf {a}fec|"C#m"ecB cBc|"D"AFA fed|"A"cBA "E7"B2e|
"F#m"faf {a}fec|"C#m"ecB cBc|"D"Afe "E7"fec|"E7"ecB "A"A2:|

